!! 00000] TT[00
!!!OTL: Alamuhan
!!!ARE: Xinjiang
!! Ethnic Group: Weiwuer
!! Zhungguo Mingge Xuan, S. 270
!!!SCT: C1154
!!!YEM: Copyright 1995, estate of Helmut Schaffrath.
**kern
*ICvox
*Ivox
*M4/4
*k[]
*C:
=1
{16G
16c
16c
16c
16B
16c
8d
4.e
8cc
=2
16b
16a
16g
16f
16e
16c
8d
4c
4r}
=3
{16G
16c
16c
16c
16B
16c
8d
4.e
8cc
=4
16b
16a
16g
16f
16e
16c
8d
4c
4r}
=5
{8r
16g
16g
8.g
16a
16cc
16cc
8cc
4r}
=6
{8r
16cc
16cc
8cc
8a
16a
16a
8g
4r}
=7
{8r
16cc
16cc
8cc
8cc
16a
16b
8a
4g}
=8
{8r
16g
16g
8e
8e
16d
16d
8e
4r}
=9
{16G
16c
16c
16c
16g
16g
8f
4.e
8cc
=10
16b
16a
16g
16f
16e
16c
8d
4c
4r}
=11
{16g
16g
16g
16g
16g
16g
8f
4.e
8cc
=12
16b
16a
16ee
16dd
16cc
16a
8b
4cc
4r}
==
!!!AGN: Qingge
!!!ONB: ESAC (Essen Associative Code) Database: CHINA_018
!!!AMT: simple quadruple
!!!AIN: vox
!!!EED: Helmut Schaffrath
!!!EEV: 1.0
*-
